img/ok.svg

<svg width="21" height="21" viewBox="0 0 21 21" fill="none" xmlns="http://www.w3.org/2000/svg">
<path d="M9.84792 0H11.1605C11.2193 0.0152886 11.279 0.0269211 11.3393 0.034831C13.5377 0.208987 15.5138 0.977013 17.1834 2.41031C20.2241 5.02265 21.4716 8.34554 20.8406 12.3087C20.072 17.145 15.8046 20.8511 10.9062 21.0008C8.33683 21.0798 6.02056 20.346 4.00384 18.7455C1.91397 17.0858 0.625799 14.9292 0.15732 12.2942C0.0905609 11.9192 0.0516662 11.5395 0 11.1605V9.84734C0.030187 9.59771 0.0580518 9.34751 0.0917218 9.09847C0.39185 6.96216 1.25276 5.07954 2.69883 3.48137C4.32428 1.69047 6.32707 0.571811 8.71475 0.158482C9.09034 0.0934635 9.47 0.0522467 9.84792 0ZM11.2574 13.5C11.5999 13.4419 11.9035 13.3966 12.2025 13.3328C13.1232 13.1371 13.9493 12.7523 14.6262 12.0835C14.8003 11.9093 14.9077 11.7143 14.8915 11.4641C14.8468 10.7675 14.2018 10.375 13.5656 10.6601C13.4608 10.7096 13.3604 10.7679 13.2654 10.8342C12.1485 11.5813 10.9242 11.8124 9.60816 11.5889C8.92606 11.47 8.27771 11.205 7.70755 10.8122C7.46547 10.6485 7.20656 10.5219 6.90411 10.5643C6.50413 10.6171 6.28063 10.8818 6.15872 11.2406C6.02927 11.6214 6.18717 11.9233 6.46466 12.1694C7.08673 12.7307 7.84516 13.1191 8.66424 13.2956C9.02184 13.374 9.38292 13.4355 9.74226 13.5046L9.80032 13.5708C9.70031 13.6316 9.60572 13.701 9.5176 13.778C8.70488 14.5879 7.88867 15.3971 7.08465 16.2162C6.69222 16.6168 6.70731 17.1497 7.0951 17.527C7.48288 17.9044 7.97342 17.9049 8.38617 17.5113C8.44422 17.4533 8.50228 17.3952 8.56033 17.3372C9.13659 16.7602 9.71053 16.1833 10.2821 15.6067C10.4784 15.4093 10.5445 15.4099 10.7396 15.6014C10.793 15.6543 10.8447 15.7094 10.8975 15.7628C11.4815 16.3484 12.0657 16.9339 12.6501 17.5195C12.8643 17.7337 13.1145 17.855 13.428 17.7877C13.6077 17.7554 13.7748 17.6736 13.9105 17.5516C14.0463 17.4296 14.1454 17.2721 14.1966 17.0969C14.3127 16.7352 14.1739 16.4455 13.9197 16.1907C13.1135 15.3826 12.3082 14.5735 11.5036 13.7635C11.4275 13.6869 11.3555 13.6039 11.2574 13.5ZM10.4911 10.5904C12.5398 10.5875 14.1989 8.94289 14.1966 6.91746C14.1966 4.84791 12.5467 3.19285 10.494 3.1975C9.5217 3.20968 8.59332 3.60449 7.91004 4.29639C7.22676 4.98828 6.84362 5.92154 6.84362 6.89395C6.84362 7.86636 7.22676 8.79962 7.91004 9.49151C8.59332 10.1834 9.5217 10.5782 10.494 10.5904H10.4911Z" fill="#F8B73A"/>
<path d="M10.499 8.7014C10.1413 8.7006 9.79183 8.59368 9.49491 8.3942C9.19799 8.19471 8.96693 7.91162 8.83098 7.58076C8.69502 7.24989 8.66028 6.88613 8.73115 6.53551C8.80202 6.1849 8.97532 5.86319 9.22911 5.6111C9.4829 5.35902 9.80577 5.1879 10.1569 5.1194C10.5079 5.05089 10.8715 5.08809 11.2014 5.22628C11.5313 5.36447 11.8129 5.59743 12.0103 5.89569C12.2078 6.19395 12.3124 6.54409 12.3108 6.9018C12.3117 7.13942 12.2654 7.37485 12.1745 7.59441C12.0836 7.81397 11.95 8.01327 11.7814 8.18073C11.6128 8.34818 11.4127 8.48045 11.1925 8.56984C10.9723 8.65922 10.7366 8.70395 10.499 8.7014Z" fill="#F8B73A"/>
</svg>

<svg width="21" height="21" fill="none" xmlns="http://www.w3.org/2000/svg"><path d="M9.848 0h1.313c.058.015.118.027.178.035 2.199.174 4.175.942 5.844 2.375 3.041 2.613 4.289 5.936 3.658 9.899-.769 4.836-5.036 8.542-9.935 8.692-2.57.079-4.885-.655-6.902-2.256-2.09-1.66-3.378-3.816-3.847-6.45C.091 11.918.052 11.54 0 11.16V9.847c.03-.25.058-.5.092-.749.3-2.136 1.16-4.018 2.607-5.617C4.324 1.691 6.327.571 8.715.158 9.09.093 9.47.052 9.848 0zm1.41 13.5c.342-.058.646-.103.945-.167.92-.196 1.746-.58 2.423-1.25.174-.174.282-.369.266-.619-.045-.697-.69-1.089-1.326-.804-.105.05-.206.108-.3.174-1.117.747-2.342.978-3.658.755a4.804 4.804 0 01-1.9-.777c-.243-.163-.501-.29-.804-.248-.4.053-.623.318-.745.677-.13.38.028.682.306.928a4.79 4.79 0 002.2 1.127c.357.078.718.14 1.077.209l.058.066c-.1.06-.194.13-.282.207-.813.81-1.63 1.62-2.433 2.438-.393.4-.378.934.01 1.311.388.377.878.378 1.291-.016l.174-.174c.577-.577 1.15-1.154 1.722-1.73.196-.198.262-.197.458-.006l.158.162 1.752 1.757c.214.214.464.335.778.268a.981.981 0 00.769-.691c.116-.362-.023-.652-.277-.906a1382.09 1382.09 0 01-2.416-2.427c-.076-.077-.149-.16-.247-.264zm-.767-2.91c2.049-.002 3.708-1.647 3.706-3.673 0-2.07-1.65-3.724-3.703-3.72a3.697 3.697 0 000 7.393h-.003z" fill="#F8B73A"/><path d="M10.499 8.701a1.808 1.808 0 111.812-1.8 1.793 1.793 0 01-1.812 1.8z" fill="#F8B73A"/></svg>
